public/art/nature/small-bush.svg

<svg xmlns="http://www.w3.org/2000/svg" width="32" height="32" shape-rendering="crispEdges" viewBox="0 -0.5 16 16"><path stroke="#193314" d="M7 3h2M6 4h1m2 0h1M6 5h1m2 0h1M3 6h1m3 0h2m3 0h1M6 7h1m2 0h1M7 8h2M1 9h1m4 0h1m2 0h1m4 0h1M2 10h1m10 0h1M3 11h2m6 0h2m-7 1h1m2 0h1m-3 1h2"/><path stroke="#264c1e" d="M4 4h2m4 0h2M3 5h1m8 0h1M2 7h3m6 0h3M1 8h1m3 0h1m4 0h1m3 0h1M5 10h1m4 0h1m-6 1h1m4 0h1"/><path stroke="#49a867" d="M7 4h2M4 6h1m6 0h1M4 8h1m6 0h1M2 9h1m10 0h1m-7 2h2"/><path stroke="#74c857" d="M4 5h2m4 0h2M7 7h2M2 8h2m8 0h2m-7 2h2"/><path stroke="#498f7b" d="M7 5h2M5 6h2m2 0h2M5 7h1m4 0h1M3 9h2m6 0h2m-7 1h1m2 0h1m-4 1h1m2 0h1m-3 1h2"/><path stroke="#417579" d="M6 8h1m2 0h1M5 9h1m1 0h2m1 0h1m-8 1h2m6 0h2"/></svg>

<svg xmlns="http://www.w3.org/2000/svg" width="32" height="32" viewBox="0 -0.5 16 16" shape-rendering="crispEdges">
<path stroke="#193314" d="M7 3h2M6 4h1M9 4h1M6 5h1M9 5h1M3 6h1M7 6h2M12 6h1M6 7h1M9 7h1M7 8h2M1 9h1M6 9h1M9 9h1M14 9h1M2 10h1M13 10h1M3 11h2M11 11h2M6 12h1M9 12h1M7 13h2" />
<path stroke="#264c1e" d="M4 4h2M10 4h2M3 5h1M12 5h1M2 7h3M11 7h3M1 8h1M5 8h1M10 8h1M14 8h1M5 10h1M10 10h1M5 11h1M10 11h1" />
<path stroke="#49a867" d="M7 4h2M4 6h1M11 6h1M4 8h1M11 8h1M2 9h1M13 9h1M7 11h2" />
<path stroke="#74c857" d="M4 5h2M10 5h2M7 7h2M2 8h2M12 8h2M7 10h2" />
<path stroke="#498f7b" d="M7 5h2M5 6h2M9 6h2M5 7h1M10 7h1M3 9h2M11 9h2M6 10h1M9 10h1M6 11h1M9 11h1M7 12h2" />
<path stroke="#417579" d="M6 8h1M9 8h1M5 9h1M7 9h2M10 9h1M3 10h2M11 10h2" />
</svg>
